svgs/solid/calendar-star.svg

<svg xmlns="http://www.w3.org/2000/svg" viewBox="0 0 448 512"><!--! Font Awesome Pro 6.2.0 by @fontawesome - https://fontawesome.com License - https://fontawesome.com/license (Commercial License) Copyright 2022 Fonticons, Inc. --><path d="M128 0c17.7 0 32 14.3 32 32V64H288V32c0-17.7 14.3-32 32-32s32 14.3 32 32V64h48c26.5 0 48 21.5 48 48v48H0V112C0 85.5 21.5 64 48 64H96V32c0-17.7 14.3-32 32-32zM0 192H448V464c0 26.5-21.5 48-48 48H48c-26.5 0-48-21.5-48-48V192zm233.3 58.9c-3.8-7.7-14.8-7.7-18.7 0l-23.6 47.8-52.7 7.7c-8.5 1.2-11.9 11.7-5.8 17.7l38.2 37.2-9 52.5c-1.5 8.5 7.5 15 15.1 11L224 400l47.2 24.8c7.6 4 16.5-2.5 15.1-11l-9-52.5 38.2-37.2c6.2-6 2.8-16.5-5.8-17.7l-52.7-7.7-23.6-47.8z"/></svg>

<svg xmlns="http://www.w3.org/2000/svg" viewBox="0 0 448 512"><!--! Font Awesome Pro 6.1.2 by @fontawesome - https://fontawesome.com License - https://fontawesome.com/license (Commercial License) Copyright 2022 Fonticons, Inc. --><path d="M160 32V64H288V32C288 14.33 302.3 0 320 0C337.7 0 352 14.33 352 32V64H400C426.5 64 448 85.49 448 112V160H0V112C0 85.49 21.49 64 48 64H96V32C96 14.33 110.3 0 128 0C145.7 0 160 14.33 160 32zM0 192H448V464C448 490.5 426.5 512 400 512H48C21.49 512 0 490.5 0 464V192zM233.3 250.9C229.5 243.2 218.5 243.2 214.7 250.9L191.1 298.7L138.3 306.4C129.8 307.6 126.4 318.1 132.6 324.1L170.7 361.3L161.7 413.8C160.3 422.3 169.2 428.8 176.8 424.8L223.1 400L271.2 424.8C278.8 428.8 287.7 422.3 286.3 413.8L277.3 361.3L315.4 324.1C321.6 318.1 318.2 307.6 309.7 306.4L256.9 298.7L233.3 250.9z"/></svg>
